Obsidian/status/16s/pomodoneapp-indicator.svg

<svg height="16" width="16" xmlns="http://www.w3.org/2000/svg"><path d="m8 1a7 7 0 0 0 -7 7 7 7 0 0 0 7 7 7 7 0 0 0 7-7 7 7 0 0 0 -7-7zm-2.5 3h5c.831 0 1.5.669 1.5 1.5v5c0 .831-.669 1.5-1.5 1.5h-5c-.831 0-1.5-.669-1.5-1.5v-5c0-.831.669-1.5 1.5-1.5zm1.0996 2c-.3324 0-.5996.2672-.5996.5996v2.8008c0 .333.2672.5996.5996.5996h2.8008c.333 0 .5996-.2666.5996-.5996v-2.8008c0-.3324-.2666-.5996-.5996-.5996z" fill="#d3dae3"/></svg>

<svg xmlns="http://www.w3.org/2000/svg" width="16" height="16" version="1.1">
 <defs>
  <style id="current-color-scheme" type="text/css">
   .ColorScheme-Text { color:#d3dae3; } .ColorScheme-Highlight { color:#5294e2; }
  </style>
 </defs>
 <path style="fill:currentColor" class="ColorScheme-Text" d="M 8,1 A 7,7 0 0 0 1,8 7,7 0 0 0 8,15 7,7 0 0 0 15,8 7,7 0 0 0 8,1 Z M 5.5,4 H 10.5 C 11.331,4 12,4.669 12,5.5 V 10.5 C 12,11.331 11.331,12 10.5,12 H 5.5 C 4.669,12 4,11.331 4,10.5 V 5.5 C 4,4.669 4.669,4 5.5,4 Z M 6.5996,6 C 6.2672,6 6,6.2672 6,6.5996 V 9.4004 C 6,9.7334 6.2672,10 6.5996,10 H 9.4004 C 9.7334,10 10,9.7334 10,9.4004 V 6.5996 C 10,6.2672 9.7334,6 9.4004,6 Z"/>
</svg>
